neru-light-classic/22x22/actions/view-grid-symbolic.svg

<?xml version="1.0" encoding="UTF-8" standalone="no"?>
<svg
   xmlns:dc="http://purl.org/dc/elements/1.1/"
   xmlns:cc="http://creativecommons.org/ns#"
   xmlns:rdf="http://www.w3.org/1999/02/22-rdf-syntax-ns#"
   xmlns:svg="http://www.w3.org/2000/svg"
   xmlns="http://www.w3.org/2000/svg"
   xmlns:sodipodi="http://sodipodi.sourceforge.net/DTD/sodipodi-0.dtd"
   xmlns:inkscape="http://www.inkscape.org/namespaces/inkscape"
   width="22"
   height="22"
   viewBox="0 0 22 22"
   version="1.1"
   id="svg7"
   sodipodi:docname="view-grid-symbolic.svg"
   inkscape:version="0.92.1 r">
  <metadata
     id="metadata11">
    <rdf:RDF>
      <cc:Work
         rdf:about="">
        <dc:format>image/svg+xml</dc:format>
        <dc:type
           rdf:resource="http://purl.org/dc/dcmitype/StillImage" />
        <dc:title></dc:title>
      </cc:Work>
    </rdf:RDF>
  </metadata>
  <sodipodi:namedview
     pagecolor="#ffffff"
     bordercolor="#666666"
     borderopacity="1"
     objecttolerance="10"
     gridtolerance="10"
     guidetolerance="10"
     inkscape:pageopacity="0"
     inkscape:pageshadow="2"
     inkscape:window-width="769"
     inkscape:window-height="480"
     id="namedview9"
     showgrid="false"
     inkscape:zoom="10.727273"
     inkscape:cx="11"
     inkscape:cy="11"
     inkscape:window-x="0"
     inkscape:window-y="0"
     inkscape:window-maximized="0"
     inkscape:current-layer="svg7" />
  <defs
     id="defs3">
    <style
       type="text/css"
       id="current-color-scheme">
   .ColorScheme-Text { color:#1e333d; } .ColorScheme-Highlight { color:#3fb7ff; }
  </style>
  </defs>
  <path
     style="fill:currentColor;opacity:1"
     class="ColorScheme-Text"
     transform="translate(3 3)"
     d="M 1.25 3.0039062 C 1.1115 3.0039063 1 3.1154062 1 3.2539062 L 1 4.7539062 C 1 4.8924062 1.1115 5.0039062 1.25 5.0039062 L 2.75 5.0039062 C 2.8885 5.0039062 3 4.8924062 3 4.7539062 L 3 3.2539062 C 3 3.1154062 2.8885 3.0039062 2.75 3.0039062 L 1.25 3.0039062 z M 5.25 3.0039062 C 5.1115 3.0039063 5 3.1154062 5 3.2539062 L 5 4.7539062 C 5 4.8924062 5.1115 5.0039062 5.25 5.0039062 L 6.75 5.0039062 C 6.8885 5.0039062 7 4.8924062 7 4.7539062 L 7 3.2539062 C 7 3.1154062 6.8885 3.0039062 6.75 3.0039062 L 5.25 3.0039062 z M 9.25 3.0039062 C 9.1115 3.0039063 9 3.1154062 9 3.2539062 L 9 4.7539062 C 9 4.8924062 9.1115 5.0039062 9.25 5.0039062 L 10.75 5.0039062 C 10.8885 5.0039062 11 4.8924062 11 4.7539062 L 11 3.2539062 C 11 3.1154062 10.8885 3.0039062 10.75 3.0039062 L 9.25 3.0039062 z M 13.25 3.0039062 C 13.1115 3.0039063 13 3.1154062 13 3.2539062 L 13 4.7539062 C 13 4.8924062 13.1115 5.0039062 13.25 5.0039062 L 14.75 5.0039062 C 14.8885 5.0039062 15 4.8924062 15 4.7539062 L 15 3.2539062 C 15 3.1154062 14.8885 3.0039062 14.75 3.0039062 L 13.25 3.0039062 z M 1.25 7.0039062 C 1.1115 7.0039063 1 7.1154063 1 7.2539062 L 1 8.7539062 C 1 8.8924063 1.1115 9.0039062 1.25 9.0039062 L 2.75 9.0039062 C 2.8885 9.0039062 3 8.8924063 3 8.7539062 L 3 7.2539062 C 3 7.1154063 2.8885 7.0039062 2.75 7.0039062 L 1.25 7.0039062 z M 5.25 7.0039062 C 5.1115 7.0039063 5 7.1154063 5 7.2539062 L 5 8.7539062 C 5 8.8924063 5.1115 9.0039062 5.25 9.0039062 L 6.75 9.0039062 C 6.8885 9.0039062 7 8.8924063 7 8.7539062 L 7 7.2539062 C 7 7.1154063 6.8885 7.0039062 6.75 7.0039062 L 5.25 7.0039062 z M 9.25 7.0039062 C 9.1115 7.0039063 9 7.1154063 9 7.2539062 L 9 8.7539062 C 9 8.8924063 9.1115 9.0039062 9.25 9.0039062 L 10.75 9.0039062 C 10.8885 9.0039062 11 8.8924063 11 8.7539062 L 11 7.2539062 C 11 7.1154063 10.8885 7.0039062 10.75 7.0039062 L 9.25 7.0039062 z M 13.25 7.0039062 C 13.1115 7.0039063 13 7.1154063 13 7.2539062 L 13 8.7539062 C 13 8.8924063 13.1115 9.0039062 13.25 9.0039062 L 14.75 9.0039062 C 14.8885 9.0039062 15 8.8924063 15 8.7539062 L 15 7.2539062 C 15 7.1154063 14.8885 7.0039062 14.75 7.0039062 L 13.25 7.0039062 z M 1.25 11.003906 C 1.1115 11.003906 1 11.115406 1 11.253906 L 1 12.753906 C 1 12.892406 1.1115 13.003906 1.25 13.003906 L 2.75 13.003906 C 2.8885 13.003906 3 12.892406 3 12.753906 L 3 11.253906 C 3 11.115406 2.8885 11.003906 2.75 11.003906 L 1.25 11.003906 z M 5.25 11.003906 C 5.1115 11.003906 5 11.115406 5 11.253906 L 5 12.753906 C 5 12.892406 5.1115 13.003906 5.25 13.003906 L 6.75 13.003906 C 6.8885 13.003906 7 12.892406 7 12.753906 L 7 11.253906 C 7 11.115406 6.8885 11.003906 6.75 11.003906 L 5.25 11.003906 z M 9.25 11.003906 C 9.1115 11.003906 9 11.115406 9 11.253906 L 9 12.753906 C 9 12.892406 9.1115 13.003906 9.25 13.003906 L 10.75 13.003906 C 10.8885 13.003906 11 12.892406 11 12.753906 L 11 11.253906 C 11 11.115406 10.8885 11.003906 10.75 11.003906 L 9.25 11.003906 z M 13.25 11.003906 C 13.1115 11.003906 13 11.115406 13 11.253906 L 13 12.753906 C 13 12.892406 13.1115 13.003906 13.25 13.003906 L 14.75 13.003906 C 14.8885 13.003906 15 12.892406 15 12.753906 L 15 11.253906 C 15 11.115406 14.8885 11.003906 14.75 11.003906 L 13.25 11.003906 z"
     id="path5" />
</svg>

<svg xmlns="http://www.w3.org/2000/svg" width="22" height="22" version="1.1" id="svg7"><defs id="defs3"><style type="text/css" id="current-color-scheme"></style></defs><path transform="translate(3 3)" d="M1.25 3.004a.25.25 0 0 0-.25.25v1.5c0 .138.111.25.25.25h1.5a.25.25 0 0 0 .25-.25v-1.5a.25.25 0 0 0-.25-.25h-1.5zm4 0a.25.25 0 0 0-.25.25v1.5c0 .138.112.25.25.25h1.5a.25.25 0 0 0 .25-.25v-1.5a.25.25 0 0 0-.25-.25h-1.5zm4 0a.25.25 0 0 0-.25.25v1.5c0 .138.111.25.25.25h1.5a.25.25 0 0 0 .25-.25v-1.5a.25.25 0 0 0-.25-.25h-1.5zm4 0a.25.25 0 0 0-.25.25v1.5c0 .138.111.25.25.25h1.5a.25.25 0 0 0 .25-.25v-1.5a.25.25 0 0 0-.25-.25h-1.5zm-12 4a.25.25 0 0 0-.25.25v1.5c0 .138.111.25.25.25h1.5a.25.25 0 0 0 .25-.25v-1.5a.25.25 0 0 0-.25-.25h-1.5zm4 0a.25.25 0 0 0-.25.25v1.5c0 .138.112.25.25.25h1.5a.25.25 0 0 0 .25-.25v-1.5a.25.25 0 0 0-.25-.25h-1.5zm4 0a.25.25 0 0 0-.25.25v1.5c0 .138.111.25.25.25h1.5a.25.25 0 0 0 .25-.25v-1.5a.25.25 0 0 0-.25-.25h-1.5zm4 0a.25.25 0 0 0-.25.25v1.5c0 .138.111.25.25.25h1.5a.25.25 0 0 0 .25-.25v-1.5a.25.25 0 0 0-.25-.25h-1.5zm-12 4a.25.25 0 0 0-.25.25v1.5c0 .138.111.25.25.25h1.5a.25.25 0 0 0 .25-.25v-1.5a.25.25 0 0 0-.25-.25h-1.5zm4 0a.25.25 0 0 0-.25.25v1.5c0 .138.112.25.25.25h1.5a.25.25 0 0 0 .25-.25v-1.5a.25.25 0 0 0-.25-.25h-1.5zm4 0a.25.25 0 0 0-.25.25v1.5c0 .138.111.25.25.25h1.5a.25.25 0 0 0 .25-.25v-1.5a.25.25 0 0 0-.25-.25h-1.5zm4 0a.25.25 0 0 0-.25.25v1.5c0 .138.111.25.25.25h1.5a.25.25 0 0 0 .25-.25v-1.5a.25.25 0 0 0-.25-.25h-1.5z" id="path5" fill="currentColor" opacity="1" color="#1e333d"/></svg>
